X: 8
T: The Girl Who Broke My Heart
R: reel
M: 4/4
L: 1/8
K: Gmaj
dc|:"G"BG"D"FD "C"EC (3CCC|"G"DGGF GABc|"D"defd cAGF|"F6"D=FFE F2 dc|
"G"BG"D"FD "C"EC (3CCC|"G"DGGF GABc|"D"defd cAGF|1 DGGF "G"G2 dc:|2 "D7"DGGF "G"G2 D2||
|:"G"G2 Bd gdBG|"F"(3=FFF Ac =fcAF|"G"G2 Bd gdBd|"Am7"cBcd "D7"cAFA|
"G"(3GFG Bd gdBG|"F"=F2 Ac =fcAF|"G"GABd "D7"cAGF|1 DGGF "G"G2 D2:|2 "D7"DGGF "G"G4||

